templates/main/source/images/logo-new.svg

<?xml version="1.0" encoding="utf-8"?>
<svg width="197px" height="75px" viewBox="0 0 197 75" version="1.1" xmlns:xlink="http://www.w3.org/1999/xlink" xmlns="http://www.w3.org/2000/svg">
  <desc>Created with Lunacy</desc>
  <g id="miele-SC-logo-big">
    <path d="M0 75L196.875 75L196.875 0L0 0L0 75Z" id="Path" fill="#8C0014" stroke="none" />
    <path d="M60.4387 0L62.3542 3.65526L56.3062 6.81711L54.3907 3.12632L60.4387 0ZM45.8286 1.05592L31.0295 1.05592L23.9282 10.8868L16.7915 1.05592L0 1.05592L0 5.20066L2.93147 5.20066L2.93147 22.1112L0 22.1112L0 26.252L10.6332 26.252L10.6332 22.1112L7.66434 22.1112L7.66434 11.1513L18.6342 26.252L29.5627 11.1513L29.5627 22.1112L26.5939 22.1112L26.5939 26.252L45.8286 26.252L45.8286 22.1112L42.8617 22.1112L42.8617 5.20066L45.8286 5.20066L45.8286 1.05592ZM101.42 22.1112L98.4907 22.1112L98.4907 26.252L118.286 26.252L118.286 22.1112L115.318 22.1112L115.318 1.05592L98.4907 1.05592L98.4907 5.19868L101.42 5.19868L101.42 22.1112ZM81.0259 20.1257L81.0259 18.1954L97.2149 18.1954C97.2149 18.1954 97.2917 17.6882 97.2917 16.7961C97.2917 11.4572 91.9682 6.28618 83.0734 6.28618C72.7748 6.28618 68.8531 11.9961 68.8531 16.7941C68.8531 21.2921 72.2492 27.1776 83.0891 27.1776C91.4032 27.1776 95.9273 23.1178 97.0239 19.6993C96.0179 19.6993 93.2203 19.7013 89.6628 19.7013C89.395 20.7454 88.072 23.2382 84.7842 23.2382C82.4906 23.2382 81.0259 21.748 81.0259 20.1257ZM131.619 18.1954L131.619 20.1257C131.619 21.748 133.08 23.2382 135.373 23.2382C138.663 23.2382 139.984 20.7454 140.254 19.7013C143.809 19.7013 146.607 19.6993 147.613 19.6993C146.516 23.1178 141.994 27.1776 133.678 27.1776C122.84 27.1776 119.442 21.2921 119.442 16.7941C119.442 11.9961 123.368 6.28618 133.66 6.28618C142.559 6.28618 147.879 11.4572 147.879 16.7961C147.879 17.6882 147.804 18.1954 147.804 18.1954L131.619 18.1954ZM64.7581 7.30855L48.4962 7.30855L48.4962 11.4513L51.4612 11.4513L51.4612 22.1112L48.4962 22.1112L48.4962 26.252L67.725 26.252L67.725 22.1112L64.7581 22.1112L64.7581 7.30855ZM81.0259 14.9507L85.1504 14.9507L85.1504 12.3039C85.1504 11.5046 84.5145 10.2395 83.0753 10.2395C81.7425 10.2395 81.0259 11.4513 81.0259 12.2921L81.0259 14.9507ZM135.741 14.9507L131.619 14.9507L131.619 12.2921C131.619 11.4513 132.331 10.2395 133.666 10.2395C135.105 10.2395 135.741 11.5046 135.741 12.3039L135.741 14.9507Z" transform="translate(25.127197 23.502625)" id="Shape" fill="#FFFFFF" fill-rule="evenodd" stroke="none" />
  </g>
</svg>

<svg width="197" height="75" viewBox="0 0 197 75" xmlns:xlink="http://www.w3.org/1999/xlink" xmlns="http://www.w3.org/2000/svg"><g id="miele-SC-logo-big" stroke="none"><path d="M0 75h196.875V0H0v75z" id="Path" fill="#8C0014"/><path d="M60.439 0l1.915 3.655-6.048 3.162-1.915-3.69L60.439 0zm-14.61 1.056h-14.8l-7.1 9.83-7.137-9.83H0V5.2h2.931v16.91H0v4.141h10.633v-4.14H7.664v-10.96l10.97 15.1 10.929-15.1v10.96h-2.97v4.14H45.83v-4.14h-2.967V5.2h2.967V1.056zM101.42 22.11h-2.93v4.141h19.796v-4.14h-2.968V1.055H98.491v4.143h2.929V22.11zm-20.394-1.985v-1.93h16.189s.077-.508.077-1.4c0-5.339-5.324-10.51-14.219-10.51-10.298 0-14.22 5.71-14.22 10.508 0 4.498 3.396 10.384 14.236 10.384 8.314 0 12.838-4.06 13.935-7.479l-7.361.002a4.922 4.922 0 01-4.879 3.537c-2.293 0-3.758-1.49-3.758-3.112zm50.593-1.93v1.93c0 1.622 1.461 3.112 3.754 3.112a4.925 4.925 0 004.881-3.537l7.359-.002c-1.097 3.419-5.619 7.479-13.935 7.479-10.838 0-14.236-5.886-14.236-10.384 0-4.798 3.926-10.508 14.218-10.508 8.899 0 14.219 5.171 14.219 10.51 0 .892-.075 1.4-.075 1.4h-16.185zM64.759 7.308H48.495v4.142h2.965v10.66h-2.965v4.141h19.229v-4.14h-2.967V7.308zm16.267 7.642h4.124v-2.647c0-.8-.636-2.065-2.075-2.065-1.332 0-2.05 1.212-2.05 2.053v2.659zm54.715 0h-4.122v-2.659c0-.84.712-2.053 2.047-2.053 1.439 0 2.075 1.266 2.075 2.065v2.647z" transform="translate(25.127 23.503)" id="Shape" fill="#FFF" fill-rule="evenodd"/></g></svg>
